packages/core/src/svgs/tokens/mono/FOR.svg

<svg width="24" height="24" viewBox="0 0 24 24" fill="none" xmlns="http://www.w3.org/2000/svg">
<path d="M6.57153 20.4571V10.4971C6.57153 5.80572 10.4173 2.00001 15.1543 2.00001H15.8573C16.0629 1.99926 16.2666 2.03902 16.4569 2.11701C16.647 2.195 16.8201 2.3097 16.9661 2.45456C17.1119 2.59942 17.2279 2.77159 17.3073 2.96127C17.3866 3.15094 17.4279 3.35439 17.4286 3.56C17.4286 4.41715 16.7258 4.85715 15.8573 4.85715H14.9086C12.0229 4.85715 9.42863 7.42857 9.42863 10.2856V11.1428H15.9373C16.3242 11.1352 16.6985 11.2812 16.9781 11.549C17.2577 11.8167 17.4197 12.1844 17.4286 12.5714C17.4286 13.36 16.7601 14 15.9373 14H9.42863V20.4571C9.42863 21.3143 8.85723 22 8.0001 22C7.14296 22 6.57153 21.3143 6.57153 20.4571Z" fill="white"/>
</svg>

<svg xmlns="http://www.w3.org/2000/svg" width="24" height="24" fill="none" viewBox="0 0 24 24">
    <path fill="#fff" d="M6.572 20.457v-9.96C6.572 5.806 10.417 2 15.154 2h.703a1.566 1.566 0 0 1 1.572 1.56c0 .857-.703 1.297-1.572 1.297h-.948c-2.886 0-5.48 2.572-5.48 5.429v.857h6.508a1.463 1.463 0 0 1 1.492 1.428c0 .789-.669 1.429-1.492 1.429H9.43v6.457C9.429 21.314 8.857 22 8 22s-1.428-.686-1.428-1.543"/>
</svg>
